assets/icons/motorbike.svg

<svg width="20" height="20" viewBox="0 0 20 20" fill="none" xmlns="http://www.w3.org/2000/svg">
<path d="M16.2513 15.8337C17.4019 15.8337 18.3346 14.9009 18.3346 13.7503C18.3346 12.5997 17.4019 11.667 16.2513 11.667C15.1007 11.667 14.168 12.5997 14.168 13.7503C14.168 14.9009 15.1007 15.8337 16.2513 15.8337Z" stroke="#7F7F7F" stroke-width="1.25"/>
<path d="M3.7513 15.8337C4.9019 15.8337 5.83464 14.9009 5.83464 13.7503C5.83464 12.5997 4.9019 11.667 3.7513 11.667C2.60071 11.667 1.66797 12.5997 1.66797 13.7503C1.66797 14.9009 2.60071 15.8337 3.7513 15.8337Z" stroke="#7F7F7F" stroke-width="1.25"/>
<path d="M16.8636 6.5583C17.9316 7.8578 18.3026 9.09341 18.3341 9.74674C17.7758 9.49141 17.1489 9.34816 16.4864 9.34816C14.4487 9.34816 12.6196 10.7031 12.1827 12.508C12.0783 12.9395 12.0261 13.1552 11.9127 13.2444C11.7994 13.3337 11.6165 13.3337 11.2508 13.3337H8.8518C8.4833 13.3337 8.29908 13.3337 8.18525 13.2432C8.07142 13.1527 8.02156 12.9377 7.92185 12.5077C7.50875 10.726 5.8319 9.17733 4.08628 9.30849C3.91038 9.32174 3.82243 9.32833 3.76209 9.31491C3.70175 9.30141 3.641 9.26716 3.51951 9.19849C3.16878 9.00041 2.81015 8.81233 2.46625 8.60258C1.98713 8.31031 1.68726 7.79657 1.66841 7.23567C1.65769 6.91643 1.84128 6.5992 2.21215 6.68648L7.56271 7.94562C7.96465 8.0402 8.16561 8.0875 8.3383 8.0553C8.51097 8.02311 8.72264 7.87833 9.14605 7.58878C10.2196 6.85464 11.9211 6.1612 13.6171 6.77384C14.0814 6.94155 14.3136 7.02541 14.4458 7.0296C14.5781 7.03379 14.7719 6.97738 15.1596 6.86455C15.7872 6.68187 16.3781 6.58707 16.8636 6.5583ZM16.8636 6.5583C16.1943 5.74375 15.2511 4.90409 13.946 4.16699" stroke="#7F7F7F" stroke-width="1.25" stroke-linecap="round" stroke-linejoin="round"/>
</svg>

<svg xmlns="http://www.w3.org/2000/svg" width="20" height="20" fill="none" viewBox="0 0 20 20"><path stroke="#7f7f7f" stroke-width="1.25" d="M16.251 15.834a2.083 2.083 0 1 0 0-4.167 2.083 2.083 0 0 0 0 4.167Zm-12.5 0a2.083 2.083 0 1 0 0-4.167 2.083 2.083 0 0 0 0 4.167Z"/><path stroke="#7f7f7f" stroke-linecap="round" stroke-linejoin="round" stroke-width="1.25" d="M16.864 6.558c1.068 1.3 1.439 2.535 1.47 3.189a4.4 4.4 0 0 0-1.848-.399c-2.037 0-3.866 1.355-4.303 3.16-.105.432-.157.647-.27.736-.114.09-.296.09-.662.09h-2.4c-.368 0-.552 0-.666-.09-.114-.091-.163-.306-.263-.736-.413-1.782-2.09-3.33-3.836-3.2-.176.014-.264.02-.324.007a1 1 0 0 1-.242-.117c-.351-.198-.71-.386-1.054-.595a1.67 1.67 0 0 1-.798-1.367c-.01-.32.173-.637.544-.55l5.35 1.26c.403.094.604.142.776.11.173-.033.385-.178.808-.467 1.074-.734 2.775-1.428 4.471-.815.464.168.697.251.829.256.132.004.326-.053.714-.165a8 8 0 0 1 1.704-.307m0 0c-.67-.814-1.613-1.654-2.918-2.391"/></svg>
